X: 41095
T: Trip To Portarlington, The
R: polka
M: 2/4
K: Amajor
|:A>B AB|c/B/A ce|f>g fe|(3f/g/f/e fg|
af/e/ cB|c/B/A AF|E/F/A E/F/A|BA/B/ cB:|
|:A2 ec-|cc/d/ ec|(3d/e/d/c cB|c/B/A AB|
FE/F/ AA|E/F/A AE/F/|Bc cB|EF AB:|

